docs/img/questions/icon-mail.svg

<svg width="25" height="25" viewBox="0 0 25 25" fill="none" xmlns="http://www.w3.org/2000/svg">
<path fill-rule="evenodd" clip-rule="evenodd" d="M22.9163 3.125C24.0662 3.125 25 4.0575 25 5.20875V19.7913C25 20.9412 24.0675 21.875 22.9163 21.875H2.08375C0.93375 21.875 0 20.9425 0 19.7913V5.20875C0 4.05875 0.9325 3.125 2.08375 3.125H22.9163ZM8.96 14.16L2.8225 20.225H21.9788L15.9075 14.2225L12.5 16.5813L8.96 14.16ZM23.3 9.115L17.305 13.26L23.3 19.18V9.115ZM1.70125 9.19125V18.9862L7.55875 13.1975L1.70125 9.19125ZM22.8962 4.77625H2.1225C2.00843 4.7709 1.89664 4.80936 1.81 4.88375C1.7715 4.91823 1.74178 4.96139 1.7233 5.00965C1.70483 5.05791 1.69812 5.10988 1.70375 5.16125V7.18625L12.5 14.57L23.305 7.11375V5.24875C23.3062 5.08125 23.2675 4.96 23.19 4.88375C23.1515 4.84631 23.1056 4.81738 23.0552 4.79886C23.0048 4.78034 22.9511 4.77264 22.8975 4.77625H22.8962Z" fill="white"/>
</svg>

<svg width="25" height="25" fill="none" xmlns="http://www.w3.org/2000/svg"><path fill-rule="evenodd" clip-rule="evenodd" d="M22.916 3.125c1.15 0 2.084.933 2.084 2.084V19.79c0 1.15-.933 2.084-2.084 2.084H2.084A2.084 2.084 0 010 19.791V5.21c0-1.15.932-2.084 2.084-2.084h20.832zM8.96 14.16l-6.138 6.065H21.98l-6.071-6.003-3.408 2.36-3.54-2.422zM23.3 9.115l-5.995 4.145 5.995 5.92V9.115zm-21.599.076v9.795l5.858-5.789L1.7 9.191zm21.195-4.415H2.122a.448.448 0 00-.312.108.325.325 0 00-.106.277v2.025L12.5 14.57l10.805-7.456V5.249c.001-.168-.038-.289-.115-.365a.383.383 0 00-.293-.108z" fill="#fff"/></svg>
